Numix-Light-GalliumOS/16/status/audio-volume-muted-panel.svg

<?xml version="1.0" encoding="UTF-8" standalone="no"?>
<svg
   xmlns:dc="http://purl.org/dc/elements/1.1/"
   xmlns:cc="http://creativecommons.org/ns#"
   xmlns:rdf="http://www.w3.org/1999/02/22-rdf-syntax-ns#"
   xmlns:svg="http://www.w3.org/2000/svg"
   xmlns="http://www.w3.org/2000/svg"
   xmlns:sodipodi="http://sodipodi.sourceforge.net/DTD/sodipodi-0.dtd"
   xmlns:inkscape="http://www.inkscape.org/namespaces/inkscape"
   width="16"
   height="16"
   viewBox="0 0 16 16"
   id="svg3024"
   version="1.1"
   inkscape:version="0.91 r"
   sodipodi:docname="xfce4-mixer-volume-muted.svg">
  <metadata
     id="metadata3089">
    <rdf:RDF>
      <cc:Work
         rdf:about="">
        <dc:format>image/svg+xml</dc:format>
        <dc:type
           rdf:resource="http://purl.org/dc/dcmitype/StillImage" />
      </cc:Work>
    </rdf:RDF>
  </metadata>
  <sodipodi:namedview
     pagecolor="#ffffff"
     bordercolor="#666666"
     borderopacity="1"
     objecttolerance="10"
     gridtolerance="10"
     guidetolerance="10"
     inkscape:pageopacity="0"
     inkscape:pageshadow="2"
     inkscape:window-width="1280"
     inkscape:window-height="998"
     id="namedview3087"
     showgrid="true"
     inkscape:zoom="34.029514"
     inkscape:cx="6.0018637"
     inkscape:cy="8.6792245"
     inkscape:window-x="0"
     inkscape:window-y="0"
     inkscape:window-maximized="1"
     inkscape:current-layer="svg3024">
    <inkscape:grid
       type="xygrid"
       id="grid3125" />
  </sodipodi:namedview>
  <defs
     id="defs3026" />
  <path
     style="fill:#353535;fill-opacity:1"
     inkscape:connector-curvature="0"
     id="path3342"
     d="m 6,2.9999997 -2,2 L 4,10 6,12 6.0000032,8.996979 7.5000004,7.4999997 6,5.9999997 z"
     sodipodi:nodetypes="cccccccc" />
  <path
     style="fill:#353535;fill-opacity:1"
     inkscape:connector-curvature="0"
     id="path3344"
     d="M 1.7499995,4.9999997 C 1.3588707,4.9999997 1,5.4159218 1,5.8363147 L 1,9.163685 C 1,9.64669 1.3266127,10 1.7499995,10 L 4,10 4,4.9999997 z"
     sodipodi:nodetypes="ssssccs" />
  <path
     style="color:#000000;fill:#353535;fill-opacity:1;opacity:0.40000000000000002"
     inkscape:connector-curvature="0"
     d="M 8.8953847,4.5 8,5.3953849 10.104616,7.4999995 8,9.6046155 8.8953847,10.5 11,8.3953841 13.104616,10.5 14,9.6046155 11.895385,7.4999995 14,5.3953849 13.104616,4.5 11,6.6046144 z"
     id="path3085" />
</svg>

<svg xmlns="http://www.w3.org/2000/svg" viewBox="0 0 16 16">
 <path d="m 6 3 -2 2 l 0 5 2 2 0 -3 1.5 -1.497 -1.5 -1.5 z" style="fill:#353535;fill-opacity:1"/>
 <path d="m 1.75 5 c -0.391 0 -0.75 0.416 -0.75 0.836 l 0 3.327 c 0 0.483 0.327 0.836 0.75 0.836 l 2.25 0 0 -5 z" style="fill:#353535;fill-opacity:1"/>
 <path d="m 8.895 4.5 -0.895 0.895 2.105 2.105 -2.105 2.105 0.895 0.895 2.105 -2.105 2.105 2.105 0.895 -0.895 -2.105 -2.105 2.105 -2.105 -0.895 -0.895 -2.105 2.105 z" style="fill:#353535;opacity:0.4;fill-opacity:1;color:#000"/>
</svg>
